assets/img/home/Grow-icon.svg

<?xml version="1.0" encoding="UTF-8"?>
<svg width="50px" height="51px" viewBox="0 0 50 51" version="1.1" xmlns="http://www.w3.org/2000/svg" xmlns:xlink="http://www.w3.org/1999/xlink">
    <!-- Generator: Sketch 52.3 (67297) - http://www.bohemiancoding.com/sketch -->
    <title>growth</title>
    <desc>Created with Sketch.</desc>
    <g id="Temporary-Homepage-(Instapage)" stroke="none" stroke-width="1" fill="none" fill-rule="evenodd">
        <g id="Insta" transform="translate(-1050.000000, -1129.000000)" fill="#6D5CAE" fill-rule="nonzero">
            <g id="Group-2" transform="translate(984.000000, 1129.000000)">
                <g id="growth" transform="translate(66.000000, 0.000000)">
                    <path d="M48.5208333,19.875 C49.2399541,19.875 49.8229167,20.4579626 49.8229167,21.1770833 L49.8229167,26.1979167 C49.8229167,26.9170374 49.2399541,27.5 48.5208333,27.5 C47.8017126,27.5 47.21875,26.9170374 47.21875,26.1979167 L47.21875,24.3229167 L38.6458333,32.8958333 C38.2322354,33.3101915 37.5929456,33.3975611 37.0833333,33.109375 L31.09375,29.7395833 L21.4635417,38.3020833 C21.1155799,38.6109692 20.6292612,38.7107562 20.1877773,38.5638553 C19.7462934,38.4169545 19.4167161,38.0456837 19.323194,37.589897 C19.2296718,37.1341103 19.3864132,36.6630525 19.734375,36.3541667 L30.0572917,27.1770833 C30.472001,26.8095747 31.0738717,26.74479 31.5572917,27.015625 L37.5,30.3541667 L45.375,22.4791667 L43.5,22.4791667 C42.7808793,22.4791666 42.1979167,21.8962041 42.1979167,21.1770833 C42.1979167,20.4579626 42.7808793,19.875 43.5,19.875 L48.5208333,19.875 Z M46.0104167,30.2916667 C45.2912959,30.2916667 44.7083333,30.8746292 44.7083333,31.59375 L44.7083333,47.7395833 C44.7083333,48.4587041 45.2912959,49.0416667 46.0104167,49.0416667 C46.7295374,49.0416667 47.3125,48.4587041 47.3125,47.7395833 L47.3125,31.59375 C47.3039432,30.8807386 46.7234794,30.3072403 46.0104167,30.3072917 L46.0104167,30.2916667 Z M37.5,36.9166667 L37.5,47.7552083 C37.5,48.4743291 38.0829626,49.0572917 38.8020833,49.0572917 C39.5212041,49.0572917 40.1041667,48.4743291 40.1041667,47.7552083 L40.1041667,36.9166667 C40.1041667,36.1975459 39.5212041,35.6145833 38.8020833,35.6145833 C38.0829626,35.6145833 37.5,36.1975459 37.5,36.9166667 Z M30.2864583,35.2395833 L30.2864583,47.7395833 C30.2864583,48.4587041 30.8694209,49.0416667 31.5885417,49.0416667 C32.3076624,49.0416667 32.890625,48.4587041 32.890625,47.7395833 L32.890625,35.2395833 C32.890625,34.5204626 32.3076624,33.9375 31.5885417,33.9375 C30.8694209,33.9375 30.2864583,34.5204626 30.2864583,35.2395833 Z M23.078125,41.015625 L23.078125,47.7552083 C23.078125,48.4743291 23.6610876,49.0572917 24.3802083,49.0572917 C25.0993291,49.0572917 25.6822917,48.4743291 25.6822917,47.7552083 L25.6822917,41.015625 C25.6822917,40.2965042 25.0993291,39.7135417 24.3802083,39.7135417 C23.6610876,39.7135417 23.078125,40.2965042 23.078125,41.015625 Z M10.7708333,0.260416667 C14.1967247,0.260416667 16.9739583,3.03765033 16.9739583,6.46354167 C16.9739583,9.88943301 14.1967247,12.6666667 10.7708333,12.6666667 C7.34494199,12.6666667 4.56770833,9.88943301 4.56770833,6.46354167 C4.5705802,3.0388406 7.34613227,0.263288535 10.7708333,0.260416667 Z M10.7708333,2.86458333 C8.78318353,2.86458333 7.171875,4.47589186 7.171875,6.46354167 C7.171875,8.45119147 8.78318353,10.0625 10.7708333,10.0625 C12.7584831,10.0625 14.3697917,8.45119147 14.3697917,6.46354167 C14.3697917,5.50903857 13.9906168,4.59362944 13.3156812,3.91869382 C12.6407456,3.24375821 11.7253364,2.86458333 10.7708333,2.86458333 Z M0.213541667,19.7916667 C0.0215480917,18.1792984 0.528513754,16.5618199 1.60647708,15.3474937 C2.68444041,14.1331675 4.23040783,13.4380159 5.85416667,13.4375 L7.46354167,13.4375 C7.92912689,13.435373 8.36949003,13.6488242 8.65625,14.015625 L10.7395833,16.6197917 L12.8229167,14.015625 C13.1216625,13.6537656 13.56722,13.4453288 14.0364583,13.4479167 L16.1197917,13.4479167 C16.9566573,13.4495309 17.7668787,13.7423154 18.4114583,14.2760417 L23.0104167,18.0729167 L27.6041667,14.4739583 C28.4136963,13.8359899 29.4576268,13.5751321 30.4720971,13.7573186 C31.4865674,13.9395051 32.3744982,14.5473018 32.9114583,15.4270833 C33.8642633,17.0189579 33.4696959,19.0725016 31.9947917,20.1979167 L25.1979167,25.5208333 C23.865092,26.5711099 21.9801779,26.5494193 20.671875,25.46875 L18.4166667,23.6041667 L16.4114583,38.9427083 L15.4114583,48.1145833 C15.2415711,49.6341077 13.9560744,50.782754 12.4270833,50.78125 L9.03125,50.78125 C7.50403689,50.7830509 6.21921581,49.6372506 6.046875,48.1197917 L4.00520833,33.1458333 C2.59945495,32.3582305 1.66058814,30.9402313 1.484375,29.3385417 L0.213541667,19.7916667 Z M2.81770833,19.4739583 L4.06770833,29.0208333 C4.16089095,29.9371599 4.76683542,30.7208481 5.63020833,31.0416667 C6.08231953,31.2063221 6.40677596,31.6068856 6.47395833,32.0833333 L8.61979167,47.7864583 C8.63340625,47.9986016 8.80826597,48.1643777 9.02083333,48.1666667 L12.421875,48.1666667 C12.6251984,48.1677959 12.7963087,48.0146973 12.8177083,47.8125 L13.8177083,38.6197917 L16.1458333,20.9375 C16.2079173,20.468251 16.5197609,20.0696541 16.9602817,19.8964764 C17.4008025,19.7232987 17.9006046,19.8028211 18.265625,20.1041667 L22.3385417,23.46875 C22.7099689,23.7491404 23.2223228,23.7491404 23.59375,23.46875 L30.3645833,18.1354167 C30.8015257,17.8291991 30.9364387,17.2423277 30.6770833,16.7760417 C30.4949925,16.4754594 30.1691436,16.2917991 29.8177083,16.2916667 C29.5946344,16.2915423 29.3780619,16.366792 29.203125,16.5052083 L23.8072917,20.7604167 C23.3301449,21.145463 22.6490217,21.145463 22.171875,20.7604167 L16.7604167,16.2708333 C16.5877782,16.1264311 16.3708689,16.0455496 16.1458333,16.0416667 L14.515625,16.0416667 L12.1614583,18.984375 C11.8135632,19.4197885 11.2864959,19.6733082 10.7291667,19.6733082 C10.1718374,19.6733082 9.64477009,19.4197885 9.296875,18.984375 L6.94270833,16.0416667 L5.85416667,16.0416667 C4.97821893,16.042116 4.14395061,16.4157395 3.56033823,17.0689479 C2.97672584,17.7221563 2.6990533,18.5930731 2.796875,19.4635417 L2.81770833,19.4739583 Z" id="Shape"></path>
                </g>
            </g>
        </g>
    </g>
</svg>

<?xml version="1.0" encoding="UTF-8" standalone="no"?>
<svg xmlns="http://www.w3.org/2000/svg" height="51px" width="50px" version="1.1" xmlns:xlink="http://www.w3.org/1999/xlink" viewBox="0 0 50 51"><!-- Generator: Sketch 52.3 (67297) - http://www.bohemiancoding.com/sketch -->
 <title>growth</title>
 <desc>Created with Sketch.</desc>
 <g id="Temporary-Homepage-(Instapage)" fill-rule="evenodd" fill="none">
  <g id="Insta" fill-rule="nonzero" fill="#6D5CAE" transform="translate(-1050 -1129)">
   <g id="Group-2" transform="translate(984 1129)">
    <g id="growth" transform="translate(66)">
     <path id="Shape" d="m48.521 19.875c0.719 0 1.302 0.583 1.302 1.302v5.021c0 0.719-0.583 1.302-1.302 1.302s-1.302-0.583-1.302-1.302v-1.875l-8.573 8.573c-0.414 0.414-1.053 0.502-1.563 0.213l-5.989-3.369-9.63 8.562c-0.348 0.309-0.835 0.409-1.276 0.262-0.442-0.147-0.771-0.518-0.865-0.974-0.093-0.456 0.063-0.927 0.411-1.236l10.323-9.177c0.415-0.367 1.017-0.432 1.5-0.161l5.943 3.338 7.875-7.875h-1.875c-0.719 0-1.302-0.583-1.302-1.302s0.583-1.302 1.302-1.302h5.021zm-2.511 10.417c-0.719 0-1.302 0.583-1.302 1.302v16.146c0 0.719 0.583 1.302 1.302 1.302 0.72 0 1.302-0.583 1.302-1.302v-16.146c-0.008-0.713-0.589-1.287-1.302-1.287v-0.015zm-8.51 6.625v10.838c0 0.719 0.583 1.302 1.302 1.302s1.302-0.583 1.302-1.302v-10.838c0-0.719-0.583-1.302-1.302-1.302s-1.302 0.583-1.302 1.302zm-7.214-1.677v12.5c0 0.719 0.583 1.302 1.303 1.302 0.719 0 1.302-0.583 1.302-1.302v-12.5c0-0.72-0.583-1.302-1.302-1.302-0.72 0-1.303 0.582-1.303 1.302zm-7.208 5.776v6.739c0 0.719 0.583 1.302 1.302 1.302s1.302-0.583 1.302-1.302v-6.739c0-0.719-0.583-1.302-1.302-1.302s-1.302 0.583-1.302 1.302zm-12.307-40.756c3.426 0 6.203 2.7773 6.203 6.2031 0 3.4259-2.777 6.2035-6.203 6.2035-3.4261 0-6.2033-2.7776-6.2033-6.2035 0.0029-3.4247 2.7784-6.2002 6.2033-6.2031zm0 2.6042c-1.9878 0-3.5991 1.6113-3.5991 3.5989 0 1.9877 1.6113 3.5985 3.5991 3.5985 1.987 0 3.599-1.6108 3.599-3.5985 0-0.9545-0.379-1.8699-1.054-2.5448s-1.591-1.0541-2.545-1.0541zm-10.557 16.927c-0.19199-1.613 0.31497-3.23 1.393-4.445 1.0779-1.214 2.6239-1.909 4.2477-1.909h1.6093c0.4656-0.003 0.906 0.211 1.1927 0.578l2.0838 2.604 2.083-2.604c0.299-0.362 0.744-0.571 1.213-0.568h2.084c0.837 0.002 1.647 0.294 2.291 0.828l4.599 3.797 4.594-3.599c0.81-0.638 1.854-0.899 2.868-0.717 1.015 0.183 1.902 0.79 2.439 1.67 0.953 1.592 0.559 3.646-0.916 4.771l-6.797 5.323c-1.333 1.05-3.218 1.028-4.526-0.052l-2.255-1.865-2.006 15.339-1 9.172c-0.169 1.519-1.455 2.668-2.984 2.666h-3.3958c-1.5272 0.002-2.812-1.144-2.9843-2.661l-2.0417-14.974c-1.4057-0.788-2.3446-2.206-2.5208-3.807l-1.2709-9.547zm2.6042-0.318l1.25 9.547c0.0932 0.916 0.6991 1.7 1.5625 2.021 0.4521 0.164 0.7766 0.565 0.8438 1.041l2.1458 15.703c0.0136 0.213 0.1885 0.378 0.401 0.381h3.4012c0.203 0.001 0.374-0.152 0.396-0.355l1-9.192 2.328-17.682c0.062-0.47 0.374-0.868 0.814-1.042 0.441-0.173 0.941-0.093 1.306 0.208l4.073 3.365c0.371 0.28 0.883 0.28 1.255 0l6.771-5.334c0.437-0.306 0.571-0.893 0.312-1.359-0.182-0.301-0.508-0.484-0.859-0.484-0.223 0-0.44 0.075-0.615 0.213l-5.396 4.255c-0.477 0.385-1.158 0.385-1.635 0l-5.412-4.489c-0.172-0.145-0.389-0.225-0.614-0.229h-1.63l-2.355 2.942c-0.347 0.436-0.875 0.689-1.432 0.689s-1.0842-0.253-1.4321-0.689l-2.3542-2.942h-1.0885c-0.876 0-1.7102 0.374-2.2939 1.027-0.5836 0.653-0.8612 1.524-0.7634 2.395l0.0208 0.01z"/>
    </g>
   </g>
  </g>
 </g>
</svg>
